X:97
T:Bonnie Doon
S:American Veteran Fifer #97
M:6/8
L:1/8
Q:1/8=300
K:D 
%%MIDI program 72
%%MIDI transpose 8
%%MIDI ratio 3 1
A | d2d e2e | faf ede | fed dBA | ABd d2f/e/ |
d2d e2e | faf ede | fed dcB | ABc d2 :|
|: f/g/ | a2b afd | a2b afd | afd afd | baf e2 f/e/ |
d2d e2e | faf ede | fed dcB | ABc d2 :|



